src/img/list-numbered.svg

<!-- Generated by IcoMoon.io -->
<svg version="1.1" xmlns="http://www.w3.org/2000/svg" width="32" height="32" viewBox="0 0 32 32">
<title>list-numbered</title>
<path d="M12 26h20v4h-20zM12 14h20v4h-20zM12 2h20v4h-20zM6 0v8h-2v-6h-2v-2zM4 16.438v1.563h4v2h-6v-4.563l4-1.875v-1.563h-4v-2h6v4.563zM8 22v10h-6v-2h4v-2h-4v-2h4v-2h-4v-2z"></path>
</svg>

<svg xmlns="http://www.w3.org/2000/svg" viewBox="-3704 -8955 30 32">
  <defs>
    <style>
      .cls-1 {
        fill: #fff;
      }
    </style>
  </defs>
  <path id="list-numbered" class="cls-1" d="M12,26H32v4H12Zm0-12H32v4H12ZM12,2H32V6H12ZM6,0V8H4V2H2V0ZM4,16.438V18H8v2H2V15.438l4-1.875V12H2V10H8v4.563ZM8,22V32H2V30H6V28H2V26H6V24H2V22Z" transform="translate(-3706 -8955)"/>
</svg>
